public/assets/courseDetailsImages/Module 1.svg

<svg width="59" height="88" viewBox="0 0 59 88" fill="none" xmlns="http://www.w3.org/2000/svg">
<path d="M26.908 17.9599C28.8643 15.4402 32.5292 15.9782 34.6008 18.2095C35.7019 19.4245 36.5606 20.8751 37.1227 22.47C37.9743 24.7984 38.7069 27.5925 38.972 28.1315C40.5496 30.8063 42.8485 32.8813 45.5518 34.0704C47.1423 34.7541 48.8336 35.0999 50.2398 36.2264C51.553 37.2767 52.5029 38.78 52.936 40.4929C53.1614 41.3442 53.1392 42.2509 52.8723 43.0879C52.6055 43.9249 52.1072 44.6508 51.4463 45.1655C52.8859 45.7213 54.0881 46.8353 54.8242 48.2955C55.9881 50.9707 54.5455 53.4943 52.4766 53.6201C53.169 54.4164 53.6832 55.3768 53.9791 56.4261C54.1424 57.008 54.1607 57.6269 54.0319 58.219C53.9031 58.8112 53.632 59.3551 53.2465 59.7948C52.8485 60.1488 52.3818 60.3991 51.8819 60.5267C51.3819 60.6542 50.8619 60.6557 50.3614 60.531C50.2988 60.5201 50.2361 60.5042 50.1735 60.4904C49.9384 59.1528 47.9103 48.4322 47.5408 46.8013C46.1265 40.5692 43.5002 33.9525 38.7241 30.1647C36.9515 28.7592 34.9159 27.7994 32.7633 27.354C30.6106 26.9086 28.3944 26.9887 26.2734 27.5886C26.1427 27.6272 25.7923 27.7332 25.6643 27.7867C25.5926 23.5391 25.1568 20.2149 26.908 17.9599ZM27.6615 23.0021C27.8417 23.813 28.2838 24.5258 28.9066 25.0097C29.5294 25.4936 30.2912 25.7162 31.0522 25.6367C31.8544 25.5587 32.6021 25.1608 33.1524 24.519C33.7027 23.8773 34.017 23.0367 34.0353 22.1579C34.0808 21.4596 33.9016 20.7659 33.5285 20.1964C33.1555 19.627 32.6119 19.2176 31.9918 19.0389C31.055 18.7682 30.0614 18.857 29.1775 19.2905C28.5841 19.6388 28.1133 20.1921 27.8389 20.8638C27.5646 21.5355 27.5022 22.2875 27.6615 23.0021Z" fill="black"/>
<path d="M29.1742 19.2908C29.8629 18.9118 30.6433 18.7786 31.405 18.9102C32.1668 19.0418 32.8714 19.4314 33.4192 20.024C33.7524 20.5346 33.9563 21.1322 34.0101 21.7564C34.064 22.3806 33.9659 23.0093 33.7257 23.5788C33.4856 24.1483 33.1119 24.6386 32.6425 25C32.1731 25.3613 31.6246 25.5811 31.0525 25.6369C30.2915 25.7165 29.5297 25.4939 28.9069 25.01C28.2841 24.526 27.842 23.8133 27.6618 23.0024C27.5022 22.2883 27.564 21.5365 27.8377 20.8649C28.1114 20.1933 28.5814 19.6397 29.1742 19.2908Z" fill="#FFD2D2"/>
<path d="M1.85341 12.1628C1.71905 13.6045 2.36541 15.1442 3.7117 15.2343C4.16761 15.2048 4.60773 15.0414 4.98551 14.7613C5.36329 14.4812 5.66467 14.0948 5.85778 13.6431C5.97063 14.0112 6.17557 14.3374 6.44942 14.5851C6.72327 14.8327 7.05511 14.9918 7.40746 15.0443C7.7598 15.0969 8.1186 15.0408 8.44329 14.8825C8.76798 14.7242 9.04562 14.4699 9.24484 14.1484C9.33837 14.9492 9.24113 15.7627 8.96251 16.5105C8.79003 16.8949 9.31747 17.2328 9.49086 16.8474C10.3161 15.0154 9.40734 13.0823 10.1399 11.5882C10.27 11.3598 10.4544 11.1742 10.6735 11.0512C10.8926 10.9281 11.1381 10.8723 11.384 10.8896C11.6299 10.9069 11.8669 10.9966 12.0697 11.1493C12.2725 11.302 12.4335 11.5119 12.5357 11.7566C13.0157 12.9865 13.2628 14.3097 13.2619 15.6465C13.2991 16.0706 13.911 16.0736 13.8738 15.6465C13.7167 13.8759 13.6695 12.3352 12.8225 11.0234C12.6595 10.7952 12.455 10.6062 12.222 10.4682C11.9889 10.3302 11.7323 10.2462 11.4681 10.2215C11.2039 10.1967 10.9379 10.2318 10.6867 10.3244C10.4356 10.4171 10.2046 10.5653 10.0083 10.7598C10.051 10.5444 10.1152 10.3348 10.1999 10.1346C10.3651 9.74723 9.83673 9.40937 9.67242 9.79776C9.39518 10.7197 9.23035 11.6774 9.1822 12.6463C9.15007 13.0334 9.01434 13.4017 8.79191 13.7052C8.56948 14.0088 8.27017 14.2342 7.93123 14.3535C7.62172 14.4396 7.29372 14.3919 7.01564 14.2204C6.73757 14.0489 6.53091 13.7668 6.43878 13.433C6.20932 12.6099 6.15988 11.7394 6.29444 10.8916C6.35934 10.247 6.4909 9.61247 6.68662 9.00016C6.70294 8.95858 6.71137 8.91382 6.71141 8.86858C6.71145 8.82335 6.70308 8.77858 6.68683 8.73696C6.67058 8.69535 6.64677 8.65776 6.61684 8.62647C6.58692 8.59517 6.55149 8.57082 6.5127 8.55487C6.47392 8.53893 6.43257 8.53173 6.39116 8.53371C6.34976 8.53568 6.30915 8.5468 6.27178 8.56637C6.23442 8.58595 6.20107 8.61359 6.17376 8.64761C6.14645 8.68164 6.12574 8.72135 6.11288 8.76435C5.75218 9.92191 5.59089 11.1423 5.63718 12.364C5.6106 12.4043 5.59289 12.4507 5.58543 12.4997C5.526 13.007 5.32068 13.4807 4.999 13.8526C4.67732 14.2245 4.25586 14.4755 3.79523 14.5695C3.56825 14.5649 3.34697 14.4911 3.15639 14.3564C2.96582 14.2218 2.81353 14.0317 2.71674 13.8076C2.4982 13.2943 2.41219 12.7256 2.46799 12.1628C2.48433 11.7328 1.87247 11.7358 1.85613 12.1628C1.9526 11.4207 2.11527 10.6906 2.34181 9.98304C2.51823 9.2545 2.84664 8.58036 3.30137 8.01331C3.49678 7.74301 3.74869 7.52775 4.036 7.38555C4.32331 7.24336 4.63766 7.17836 4.95272 7.19602C5.26778 7.21368 5.57437 7.31347 5.84682 7.48704C6.11927 7.66062 6.34965 7.90291 6.51867 8.19364C7.17228 7.40743 8.07868 6.92687 9.04894 6.85211C10.0192 6.77735 10.9785 7.11417 11.7268 7.79236C11.8385 6.27444 12.1399 3.23464 12.4077 1.68006C12.4167 1.25581 12.5691 0.850192 12.8356 0.541177C13.1021 0.232163 13.4638 0.041567 13.8513 0.00604099C14.2387 -0.029485 14.6245 0.0925687 14.9345 0.348726C15.2445 0.604883 15.4568 0.977061 15.5306 1.39371C15.5875 2.41219 15.5696 3.43401 15.477 4.44937C14.9686 19.4542 15.3426 16.7463 15.339 21.1574C15.339 25.7627 16.0044 29.5337 19.4759 32.1197C15.8782 36.2137 13.8166 42.1269 12.6428 47.6754C9.31415 44.3783 6.70312 40.3105 5.0008 35.7699C2.14915 28.315 1.06663 20.1955 1.85341 12.1628Z" fill="#FFD2D2"/>
<path d="M12.6396 47.6677C14.4407 39.0615 18.4342 29.8916 26.2705 27.5899C28.3914 26.9903 30.6076 26.9103 32.7602 27.3557C34.9128 27.8011 36.9485 28.7608 38.7212 30.166C44.228 34.5325 46.8661 42.6017 48.1624 49.901C48.2153 50.1013 48.2502 50.3067 48.2668 50.5143C48.0257 49.3254 47.5033 48.2261 46.7516 47.3263C45.9999 46.4264 45.0452 45.7573 43.9827 45.3857C42.9201 45.0141 41.7869 44.9529 40.696 45.2083C39.6051 45.4638 38.5946 46.0268 37.7652 46.8414C37.0253 47.5807 36.4501 48.4949 36.0837 49.5142C35.7172 50.5334 35.5692 51.6306 35.6509 52.7218C35.6673 53.8018 35.5874 61.7967 35.5656 64.7106C34.519 62.2074 33.3078 59.7901 31.9416 57.4777C29.5005 53.2717 25.9546 48.609 21.4636 47.7529C20.4537 47.5353 19.4144 47.538 18.4055 47.761C17.3967 47.9839 16.4382 48.4227 15.5855 49.0519C13.9328 50.3021 12.6548 52.0568 11.9116 54.0961C11.7672 54.4924 11.6338 54.8887 11.4985 55.2791C11.4718 55.2342 11.4597 55.1808 11.464 55.1275C11.7135 52.6167 12.1061 50.1252 12.6396 47.6677Z" fill="#FFD500"/>
<path d="M11.0145 56.7662C11.2997 55.8684 11.6003 54.9765 11.916 54.091C12.5716 52.296 13.6403 50.716 15.0189 49.5035C18.3315 46.6569 22.5048 47.1959 25.9 49.9563C29.9116 53.2181 33.6355 60.0547 35.57 64.8522C35.57 65.4407 35.5183 73.816 35.5174 74.039H4.0081e-06V56.8623L11.0145 56.7662ZM20.1308 63.8713C21.3123 67.0419 22.3996 70.2535 23.3908 73.501C23.4123 73.5864 23.4641 73.6589 23.5346 73.7027C23.6052 73.7464 23.6888 73.7578 23.7671 73.7343C23.8453 73.7108 23.9118 73.6543 23.9519 73.5773C23.992 73.5002 24.0024 73.409 23.9809 73.3236C22.9901 70.0764 21.9032 66.8665 20.72 63.6939C20.5729 63.3006 19.9819 63.4749 20.1308 63.8713ZM16.4088 52.2867L18.2026 51.5981C18.5721 51.4564 18.4123 50.8124 18.0401 50.9551L16.2454 51.6427C15.875 51.7834 16.0348 52.4284 16.407 52.2867H16.4088ZM9.4077 67.457C9.62927 69.4934 10.0931 71.4895 10.7876 73.3949C10.8086 73.4805 10.86 73.5534 10.9303 73.5976C11.0006 73.6418 11.0841 73.6537 11.1625 73.6307C11.2409 73.6078 11.3077 73.5517 11.3482 73.475C11.3887 73.3982 11.3996 73.3071 11.3786 73.2215C9.60742 67.9098 9.2452 63.6345 11.2878 57.5994C11.4258 57.1952 10.8284 57.0238 10.6986 57.4221C9.53807 60.6059 9.09474 64.0473 9.40588 67.457H9.4077Z" fill="#2755A0"/>
<path d="M20.7206 63.6938C21.9026 66.8644 22.9895 70.0743 23.9814 73.3235C24.003 73.4089 23.9926 73.5001 23.9525 73.5771C23.9124 73.6542 23.8459 73.7107 23.7677 73.7342C23.6894 73.7577 23.6058 73.7463 23.5352 73.7026C23.4647 73.6588 23.4129 73.5862 23.3914 73.5008C22.4009 70.2569 21.3034 67.016 20.1314 63.8712C19.9825 63.4748 20.5735 63.3004 20.7206 63.6938Z" fill="#2755A0"/>
<path d="M32.1021 77.4621C32.7957 77.4621 33.4892 77.4463 34.1819 77.4274C34.6077 77.4155 35.0443 77.3848 35.4737 77.4017C35.4991 76.2811 35.6716 53.7976 35.6553 52.7176C35.616 51.5928 35.7744 50.4701 36.1219 49.4103C36.4302 48.5576 36.8905 47.7802 37.4763 47.1233C38.062 46.4664 38.7615 45.943 39.5341 45.5835C40.3067 45.224 41.1371 45.0356 41.9769 45.0292C42.8168 45.0228 43.6495 45.1985 44.4266 45.5461C45.3941 45.981 46.2507 46.665 46.9232 47.5398C47.5957 48.4146 48.0641 49.4542 48.2884 50.5695C49.9851 58.7576 51.7935 70.1549 52.9528 77.5622C54.3586 77.2776 55.8072 77.3798 57.1678 77.8594C59.5227 78.7611 59.4019 81.2014 57.9667 81.7305C57.2331 81.9475 57.176 81.8851 53.6509 81.9643C54.2945 85.2112 55.0489 86.097 54.457 87.1592C54.2543 87.5186 53.9375 87.7839 53.5669 87.9046C53.1963 88.0252 52.798 87.9926 52.448 87.8131C52.0252 87.5378 51.6377 87.2023 51.296 86.8153C48.7659 84.368 46.313 81.0568 45.1955 82.2666C44.541 83.2009 44.1542 85.457 43.3672 87.1047C43.2401 87.4304 43.0097 87.6952 42.7182 87.8506C42.4268 88.006 42.0938 88.0416 41.7803 87.9508C41.4111 87.8176 41.0779 87.5866 40.8105 87.2785C40.5431 86.9704 40.3498 86.5948 40.2479 86.1852C39.9147 84.8486 39.824 82.8521 39.3292 82.2784C38.6907 81.9039 37.9573 81.7678 37.2412 81.891C36.2635 81.9227 32.6586 82.0654 31.8361 82.0664C31.3628 82.0709 30.9019 81.9007 30.5284 81.5834C30.1548 81.2662 29.8904 80.8205 29.7781 80.3186C29.7353 79.9595 29.7637 79.5946 29.8612 79.2484C29.9588 78.9023 30.1233 78.5831 30.3436 78.3123C30.5639 78.0415 30.8349 77.8255 31.1383 77.6788C31.4416 77.5321 31.7703 77.4582 32.1021 77.4621ZM43.2346 78.7086C43.623 79.0334 43.9872 79.3912 44.324 79.7786C44.5964 80.0897 45.0285 79.6161 44.7561 79.306C44.3801 78.8801 43.9736 78.4875 43.5406 78.1319C43.2283 77.8733 42.9251 78.4519 43.2346 78.7086ZM49.1173 78.4926L50.7568 79.4834C51.1018 79.6904 51.4104 79.1138 51.0654 78.9067L49.4259 77.9159C49.081 77.7088 48.7723 78.2855 49.1173 78.4926ZM48.2503 62.2185C47.9507 61.2673 47.731 60.2883 47.594 59.2936C47.5349 58.8706 46.9467 59.0509 47.0039 59.471C47.1417 60.4656 47.3617 61.4445 47.6611 62.3959C47.7882 62.8001 48.3792 62.6257 48.2503 62.2185Z" fill="#FFD2D2"/>
<path d="M1.85328 12.1627C1.86962 11.7357 2.48149 11.7327 2.46515 12.1627C2.40972 12.7258 2.49669 13.2946 2.71661 13.8075C2.81387 14.0317 2.96668 14.2217 3.15777 14.356C3.34885 14.4903 3.57057 14.5635 3.79782 14.5674C4.25796 14.4729 4.67881 14.2217 4.99996 13.8498C5.32111 13.4779 5.52603 13.0045 5.58531 12.4976C5.59257 12.4486 5.6103 12.4021 5.63705 12.3619C5.59062 11.1402 5.75191 9.91979 6.11275 8.76227C6.12561 8.71927 6.14632 8.67955 6.17363 8.64553C6.20094 8.6115 6.23429 8.58387 6.27166 8.56429C6.30902 8.54472 6.34963 8.53361 6.39104 8.53163C6.43244 8.52965 6.47379 8.53685 6.51258 8.5528C6.55136 8.56874 6.58679 8.5931 6.61672 8.62439C6.64664 8.65569 6.67045 8.69327 6.6867 8.73488C6.70296 8.7765 6.71132 8.82127 6.71128 8.86651C6.71124 8.91174 6.70281 8.9565 6.68649 8.99808C6.49078 9.61039 6.35921 10.2449 6.29431 10.8895C6.16019 11.7374 6.20962 12.6077 6.43865 13.431C6.53098 13.7646 6.73768 14.0465 7.01569 14.218C7.2937 14.3894 7.6216 14.4372 7.9311 14.3514C9.73403 13.7153 8.96057 11.4523 9.67683 9.79965C9.84478 9.41125 10.3695 9.74912 10.2043 10.1365C10.1201 10.3368 10.0558 10.5464 10.0127 10.7617C10.2099 10.5692 10.4411 10.4228 10.692 10.3314C10.943 10.24 11.2084 10.2056 11.472 10.2302C11.7356 10.2549 11.9917 10.3382 12.2248 10.4749C12.4578 10.6116 12.6627 10.7989 12.827 11.0253C13.673 12.3361 13.7184 13.8471 13.8782 15.6484C13.9163 16.0754 13.3045 16.0725 13.2663 15.6484C13.2672 14.3116 13.0201 12.9884 12.5401 11.7585C12.4379 11.5138 12.2769 11.3039 12.0741 11.1512C11.8713 10.9985 11.6343 10.9088 11.3884 10.8915C11.1426 10.8742 10.897 10.93 10.6779 11.053C10.4588 11.1761 10.2744 11.3617 10.1444 11.59C9.41811 13.0763 10.3187 15.0232 9.49527 16.8493C9.32188 17.2347 8.79444 16.8968 8.96692 16.5124C9.2451 15.7645 9.34233 14.9511 9.24925 14.1503C9.05003 14.4718 8.77239 14.7261 8.4477 14.8844C8.12301 15.0427 7.76422 15.0988 7.41187 15.0462C7.05953 14.9936 6.72768 14.8346 6.45383 14.5869C6.17998 14.3393 5.97505 14.0131 5.86219 13.645C5.66901 14.0968 5.36749 14.4833 4.98954 14.7634C4.61159 15.0435 4.17127 15.2069 3.71521 15.2362C2.36801 15.1451 1.71802 13.5875 1.85328 12.1627Z" fill="#FF4848"/>
<path d="M18.201 51.5981L16.4072 52.2868C16.035 52.4294 15.8743 51.7844 16.2438 51.6427L18.0385 50.9551C18.4107 50.8124 18.5705 51.4574 18.201 51.5981Z" fill="#2755A0"/>
<path d="M49.4262 77.9171L51.0657 78.9079C51.4107 79.115 51.102 79.6916 50.7571 79.4846L49.1175 78.4938C48.7726 78.2857 49.0812 77.709 49.4262 77.9171Z" fill="#FF4848"/>
<path d="M43.5429 78.1318C43.976 78.4874 44.3824 78.88 44.7585 79.3059C45.0308 79.6161 44.5987 80.0897 44.3263 79.7786C43.9896 79.3912 43.6253 79.0334 43.237 78.7085C42.9256 78.4519 43.2288 77.8732 43.5429 78.1318Z" fill="#FF4848"/>
<path d="M47.5935 59.2938C47.7305 60.2884 47.9502 61.2674 48.2498 62.2186C48.3778 62.6259 47.7877 62.8002 47.6607 62.396C47.3612 61.4447 47.1412 60.4657 47.0034 59.4711C46.9462 59.051 47.5345 58.8707 47.5935 59.2938Z" fill="#FF4848"/>
<path d="M10.6987 57.422C10.713 57.3778 10.7355 57.3374 10.7649 57.3032C10.7943 57.2691 10.8299 57.2421 10.8694 57.2238C11.0846 57.1248 11.3905 57.2992 11.2879 57.6004C9.25804 63.5898 9.58939 67.8622 11.3787 73.2225C11.3998 73.308 11.3888 73.3992 11.3483 73.4759C11.3078 73.5526 11.241 73.6087 11.1626 73.6317C11.0843 73.6547 11.0007 73.6427 10.9304 73.5985C10.8601 73.5543 10.8088 73.4814 10.7877 73.3959C10.1013 71.4876 9.63765 69.4926 9.40783 67.4579C9.09611 64.0481 9.53881 60.6064 10.6987 57.422Z" fill="#2755A0"/>
</svg>

<svg xmlns="http://www.w3.org/2000/svg" width="59" height="88" fill="none"><path fill="#000" d="M26.908 17.96c1.956-2.52 5.621-1.982 7.693.25a12.6 12.6 0 0 1 2.522 4.26c.851 2.328 1.584 5.123 1.849 5.662 1.578 2.674 3.877 4.75 6.58 5.938 1.59.684 3.282 1.03 4.688 2.156 1.313 1.05 2.263 2.554 2.696 4.267a4.65 4.65 0 0 1-.064 2.595 4.27 4.27 0 0 1-1.426 2.078c1.44.555 2.642 1.67 3.378 3.13 1.164 2.675-.279 5.198-2.347 5.324a7.3 7.3 0 0 1 1.502 2.806c.163.582.182 1.2.053 1.793a3.5 3.5 0 0 1-.785 1.576 3.3 3.3 0 0 1-1.365.732c-.5.127-1.02.129-1.52.004-.063-.01-.126-.027-.189-.04-.235-1.338-2.263-12.059-2.632-13.69-1.414-6.232-4.04-12.849-8.817-16.636a14.24 14.24 0 0 0-5.96-2.811 13.64 13.64 0 0 0-6.49.235c-.131.038-.482.144-.61.198-.071-4.248-.507-7.572 1.244-9.827m.753 5.042c.18.811.623 1.524 1.246 2.008a2.98 2.98 0 0 0 2.145.627 3.18 3.18 0 0 0 2.1-1.118c.55-.642.865-1.482.883-2.361a3.2 3.2 0 0 0-.506-1.962 2.76 2.76 0 0 0-1.537-1.157 3.9 3.9 0 0 0-2.815.252 3.23 3.23 0 0 0-1.338 1.573 3.6 3.6 0 0 0-.177 2.138"/><path fill="#FFD2D2" d="M29.174 19.29a3.4 3.4 0 0 1 2.231-.38 3.58 3.58 0 0 1 2.014 1.114c.333.51.537 1.108.591 1.732a3.85 3.85 0 0 1-.284 1.823c-.24.57-.614 1.06-1.084 1.421a3.1 3.1 0 0 1-1.59.637 2.98 2.98 0 0 1-2.145-.627 3.5 3.5 0 0 1-1.245-2.008 3.6 3.6 0 0 1 .176-2.137 3.23 3.23 0 0 1 1.336-1.574M1.853 12.163c-.134 1.441.512 2.981 1.859 3.071.456-.03.896-.193 1.274-.473.377-.28.679-.666.872-1.118.113.368.318.694.591.942.274.248.606.407.958.46.353.052.712-.004 1.036-.162.325-.159.603-.413.802-.735a5.1 5.1 0 0 1-.282 2.363c-.173.384.354.722.528.336.825-1.832-.084-3.765.649-5.259.13-.228.314-.414.534-.537a1.27 1.27 0 0 1 1.396.098c.203.153.364.363.466.608.48 1.23.727 2.553.726 3.89.037.424.649.427.612 0-.157-1.771-.205-3.312-1.052-4.624a2 2 0 0 0-.6-.555 1.775 1.775 0 0 0-1.535-.144 1.9 1.9 0 0 0-.679.436q.065-.325.192-.625c.165-.388-.363-.726-.528-.337-.277.922-.442 1.88-.49 2.848a2.1 2.1 0 0 1-.39 1.06 1.8 1.8 0 0 1-.86.648c-.31.086-.638.038-.916-.134a1.34 1.34 0 0 1-.577-.787 6 6 0 0 1-.145-2.541c.065-.645.197-1.28.393-1.892a.36.36 0 0 0-.07-.374.3.3 0 0 0-.104-.071.28.28 0 0 0-.241.011.3.3 0 0 0-.098.082.3.3 0 0 0-.061.116 10.8 10.8 0 0 0-.476 3.6.34.34 0 0 0-.052.136c-.059.507-.264.98-.586 1.353a2.17 2.17 0 0 1-1.204.716 1.15 1.15 0 0 1-.639-.213 1.3 1.3 0 0 1-.44-.548 3.36 3.36 0 0 1-.248-1.645c.016-.43-.596-.427-.612 0 .097-.742.26-1.472.486-2.18a5.05 5.05 0 0 1 .96-1.97 2 2 0 0 1 .734-.627 1.83 1.83 0 0 1 1.81.101c.273.174.504.416.673.707.653-.787 1.56-1.267 2.53-1.342s1.93.262 2.678.94c.111-1.518.413-4.557.68-6.112.01-.424.162-.83.429-1.139.266-.309.628-.5 1.015-.535.388-.035.773.087 1.083.343s.523.628.597 1.045c.056 1.018.039 2.04-.054 3.055-.508 15.005-.134 12.297-.138 16.708 0 4.606.665 8.377 4.137 10.963-3.598 4.094-5.66 10.007-6.833 15.555C9.314 44.378 6.703 40.311 5 35.77c-2.852-7.455-3.934-15.575-3.148-23.607"/><path fill="#FFD500" d="M12.64 47.668c1.8-8.606 5.794-17.776 13.63-20.078 2.121-.6 4.338-.68 6.49-.234a14.25 14.25 0 0 1 5.961 2.81c5.507 4.366 8.145 12.436 9.441 19.735q.08.301.105.613a7.2 7.2 0 0 0-1.515-3.188 6.35 6.35 0 0 0-2.77-1.94 5.87 5.87 0 0 0-3.286-.178 6.2 6.2 0 0 0-2.93 1.633 7.2 7.2 0 0 0-1.682 2.673 7.8 7.8 0 0 0-.433 3.208c.016 1.08-.064 9.075-.085 11.989a59 59 0 0 0-3.624-7.233c-2.442-4.206-5.987-8.869-10.478-9.725a7.2 7.2 0 0 0-3.058.008 7.5 7.5 0 0 0-2.82 1.29c-1.653 1.251-2.931 3.006-3.674 5.045-.145.396-.278.793-.414 1.183a.26.26 0 0 1-.034-.152c.25-2.51.642-5.002 1.176-7.46"/><path fill="#2755A0" d="M11.015 56.766q.427-1.347.901-2.675c.656-1.795 1.724-3.375 3.103-4.587 3.312-2.847 7.486-2.308 10.881.452 4.012 3.262 7.736 10.099 9.67 14.896 0 .589-.052 8.964-.053 9.187H0V56.862zm9.116 7.105a168 168 0 0 1 3.26 9.63.33.33 0 0 0 .144.202c.07.043.154.055.232.031a.31.31 0 0 0 .185-.157.36.36 0 0 0 .029-.253 167 167 0 0 0-3.261-9.63c-.147-.393-.738-.22-.59.177m-3.722-11.584 1.794-.689c.37-.142.21-.786-.163-.643l-1.795.688c-.37.14-.21.785.162.644zm-7.001 15.17a25.4 25.4 0 0 0 1.38 5.938.33.33 0 0 0 .142.203c.07.044.154.056.232.033a.3.3 0 0 0 .186-.156.36.36 0 0 0 .03-.253c-1.77-5.312-2.133-9.587-.09-15.623.138-.404-.46-.575-.59-.177a23.2 23.2 0 0 0-1.292 10.035z"/><path fill="#2755A0" d="M20.72 63.694q1.774 4.755 3.261 9.63a.36.36 0 0 1-.029.253.31.31 0 0 1-.184.157.28.28 0 0 1-.233-.031.33.33 0 0 1-.144-.202 169 169 0 0 0-3.26-9.63c-.148-.396.442-.57.59-.177"/><path fill="#FFD2D2" d="M32.102 77.462c.694 0 1.387-.016 2.08-.035.426-.012.862-.042 1.292-.025.025-1.12.198-23.604.181-24.684a9.6 9.6 0 0 1 .467-3.308 7 7 0 0 1 1.354-2.287 6.4 6.4 0 0 1 2.058-1.54 5.9 5.9 0 0 1 2.443-.554c.84-.006 1.673.17 2.45.517a6.55 6.55 0 0 1 2.496 1.994 7.35 7.35 0 0 1 1.365 3.03c1.697 8.188 3.506 19.585 4.665 26.992a7.9 7.9 0 0 1 4.215.297c2.355.902 2.234 3.342.799 3.872-.734.217-.791.154-4.316.233.643 3.247 1.398 4.133.806 5.195a1.6 1.6 0 0 1-.89.746c-.37.12-.769.088-1.119-.092a5.7 5.7 0 0 1-1.152-.998c-2.53-2.447-4.983-5.758-6.1-4.548-.655.934-1.042 3.19-1.829 4.838-.127.325-.357.59-.649.746a1.25 1.25 0 0 1-.938.1 2.34 2.34 0 0 1-.97-.672 2.64 2.64 0 0 1-.562-1.094c-.333-1.336-.424-3.333-.919-3.907a3.08 3.08 0 0 0-2.088-.387c-.977.032-4.582.174-5.405.175a2 2 0 0 1-1.308-.483 2.32 2.32 0 0 1-.75-1.264 2.8 2.8 0 0 1 .083-1.07c.098-.347.262-.666.483-.937.22-.27.49-.486.794-.633s.632-.22.964-.217m11.133 1.247q.583.487 1.089 1.07c.272.31.705-.163.432-.473a10.6 10.6 0 0 0-1.215-1.174c-.313-.259-.616.32-.306.577m5.882-.216 1.64.99c.345.207.653-.37.308-.576l-1.64-.991c-.344-.207-.653.37-.308.577m-.867-16.274c-.3-.952-.519-1.93-.656-2.925-.06-.423-.647-.243-.59.177.138.995.358 1.974.657 2.925.127.404.718.23.59-.178"/><path fill="#FF4848" d="M1.853 12.163c.017-.427.628-.43.612 0a3.35 3.35 0 0 0 .252 1.644 1.3 1.3 0 0 0 .44.549c.192.134.414.207.64.211A2.17 2.17 0 0 0 5 13.85c.321-.372.526-.845.585-1.352a.3.3 0 0 1 .052-.136 10.7 10.7 0 0 1 .476-3.6.3.3 0 0 1 .06-.116.3.3 0 0 1 .099-.082.286.286 0 0 1 .345.06q.045.049.07.11a.36.36 0 0 1 0 .264 9.3 9.3 0 0 0-.393 1.892 6 6 0 0 0 .145 2.541c.092.334.299.616.577.787s.606.22.915.133c1.803-.636 1.03-2.899 1.746-4.551.168-.389.693-.05.527.336q-.126.301-.191.626a1.9 1.9 0 0 1 .679-.43 1.79 1.79 0 0 1 1.533.143c.233.137.438.324.602.55.846 1.311.891 2.822 1.051 4.623.038.427-.573.425-.612 0 .001-1.336-.246-2.66-.726-3.89a1.46 1.46 0 0 0-.466-.607 1.267 1.267 0 0 0-1.396-.098c-.22.123-.404.309-.534.537-.726 1.486.175 3.433-.649 5.26-.173.385-.7.047-.528-.338a5.1 5.1 0 0 0 .282-2.362c-.199.322-.477.576-.801.734a1.76 1.76 0 0 1-1.036.162 1.83 1.83 0 0 1-.958-.46 2.1 2.1 0 0 1-.592-.941 2.7 2.7 0 0 1-.872 1.118c-.378.28-.819.444-1.275.473-1.347-.09-1.997-1.649-1.862-3.073"/><path fill="#2755A0" d="m18.201 51.598-1.794.689c-.372.142-.533-.503-.163-.644l1.794-.688c.373-.143.532.502.163.643"/><path fill="#FF4848" d="m49.426 77.917 1.64.99c.345.208.036.785-.309.578l-1.64-.991c-.344-.208-.036-.785.31-.577M43.543 78.132q.651.534 1.215 1.174c.273.31-.16.784-.432.473a9.6 9.6 0 0 0-1.089-1.07c-.311-.257-.008-.836.306-.577M47.594 59.294c.136.994.356 1.973.656 2.925.128.407-.462.581-.59.177-.299-.951-.519-1.93-.657-2.925-.057-.42.532-.6.59-.177"/><path fill="#2755A0" d="M10.699 57.422a.4.4 0 0 1 .066-.119.3.3 0 0 1 .104-.08c.216-.098.521.076.419.377-2.03 5.99-1.699 10.262.09 15.622a.36.36 0 0 1-.03.254.3.3 0 0 1-.185.156.28.28 0 0 1-.233-.034.33.33 0 0 1-.142-.202 26.3 26.3 0 0 1-1.38-5.938 23.2 23.2 0 0 1 1.29-10.036"/></svg>
